!!!OTL: Xiongmei saichayang
!!!ARE: Asia, China,ÿJiangxi Nanchang
!! IV, 194
!!!SCT: C1956
!!!YEM: Copyright 1995, estate of Helmut Schaffrath.
**kern
*ICvox
*Ivox
!! Mixed meters:  2/4; 3/4
*M3/4
*k[f#c#g#]
*A:
{8ee
16ee
16ff#
16cc#
16b
8a
=1
8.ee
16cc#
4b
=2
8cc#
8cc#
16b
16cc#
16b
16a
=3
8.f#
16e
4e}
=4
{8b
16b
16cc#
8e
8e
=5
8f#
16f#
16e
8B
8e
=6
8a
16f#
16a
8.b
16a
4f#}
=7
*M2/4
{8a
16f#
16a
16b
16cc#
16b
16a
=8
*M3/4
16f#
16a
16a
16e
8.f#
16e
4e}
=9
*M2/4
{8.ee
16cc#
4b
=10
8.a
16f#
4e}
=11
{8a
16f#
16a
16b
16cc#
16b
16a
=12
16f#
16a
16a
16e
8.f#
16e
=13
2e}
==
!!!AGN: Xiaodiao, Lanqiao jishui diao
!!!AMT: irregular
!!!AIN: vox
!!!EED: Helmut Schaffrath
!!!EEV: 1.0
*-
